X: 1400
T: An Spideóg
R: hornpipe
M: 4/4
K: Dmajor
|:d2a2 a2gf|f2ed cdeb|g2e2 e2fe|dcBc BABc|
d2A2 A2Bc|dcde fgaf|bged ceac|d4 d2fe:|
|:d2FE FGAc|dcde fgaf|gefd edcB|c2a2 a2ba|
g2fe fgaA|Bcde dcBA|bged ceac|d4 d2fe:|

